icon-themes/sifr_svg/cmd/lc_insertpage.svg

<svg viewBox="0 0 24 24" xmlns="http://www.w3.org/2000/svg"><path d="m1 4v16h11v-2h-9v-12h18v5h2v-7zm4 4v3h13v-3zm0 4v4h6v-4zm9 0c-.554 0-1 .446-1 1v8c0 .554.446 1 1 1h8c.554 0 1-.446 1-1v-8c0-.554-.446-1-1-1zm3 1h2v3h3v2h-3v3h-2v-3h-3v-2h3z" fill="#555753"/></svg>

<svg xmlns="http://www.w3.org/2000/svg" viewBox="0 0 24 24">
  <path
     style="fill:#555753"
     d="M 1 4 L 1 20 L 12 20 L 12 18 L 3 18 L 3 6 L 21 6 L 21 11 L 23 11 L 23 4 L 1 4 z M 5 8 L 5 11 L 18 11 L 18 8 L 5 8 z M 5 12 L 5 16 L 11 16 L 11 12 L 5 12 z M 14 12 C 13.446 12 13 12.446 13 13 L 13 21 C 13 21.554 13.446 22 14 22 L 22 22 C 22.554 22 23 21.554 23 21 L 23 13 C 23 12.446 22.554 12 22 12 L 14 12 z M 17 13 L 19 13 L 19 16 L 22 16 L 22 18 L 19 18 L 19 21 L 17 21 L 17 18 L 14 18 L 14 16 L 17 16 L 17 13 z "
     />
</svg>
